flaticon/constructions/window-1.svg

<svg xmlns="http://www.w3.org/2000/svg" width="32" height="32" viewBox="0 0 24 24">
    <path d="M 22.800781 21.601562 L 21.601562 21.601562 L 21.601562 2.335938 C 22.074219 2.175781 22.398438 1.738281 22.398438 1.199219 C 22.398438 0.519531 21.878906 0 21.199219 0 L 2.800781 0 C 2.121094 0 1.601562 0.519531 1.601562 1.199219 C 1.601562 1.734375 1.945312 2.167969 2.398438 2.332031 L 2.398438 21.601562 L 1.199219 21.601562 C 0.960938 21.601562 0.800781 21.761719 0.800781 22 C 0.800781 22.238281 0.960938 22.398438 1.199219 22.398438 L 1.601562 22.398438 L 1.601562 22.800781 C 1.601562 23.480469 2.121094 24 2.800781 24 L 21.199219 24 C 21.878906 24 22.398438 23.480469 22.398438 22.800781 L 22.398438 22.398438 L 22.800781 22.398438 C 23.039062 22.398438 23.199219 22.238281 23.199219 22 C 23.199219 21.761719 23.039062 21.601562 22.800781 21.601562 Z M 2.800781 0.800781 L 21.199219 0.800781 C 21.441406 0.800781 21.601562 0.960938 21.601562 1.199219 C 21.601562 1.441406 21.441406 1.601562 21.199219 1.601562 L 2.800781 1.601562 C 2.558594 1.601562 2.398438 1.398438 2.398438 1.199219 C 2.398438 1 2.601562 0.800781 2.800781 0.800781 Z M 3.199219 2.398438 L 20.800781 2.398438 L 20.800781 21.601562 L 3.199219 21.601562 Z M 21.601562 22.800781 C 21.601562 23.039062 21.441406 23.199219 21.199219 23.199219 L 2.800781 23.199219 C 2.558594 23.199219 2.398438 23.039062 2.398438 22.800781 L 2.398438 22.398438 L 21.601562 22.398438 Z M 21.601562 22.800781"/>
    <path d="M11.199219 3.199219L4.398438 3.199219C4.160156 3.199219 4 3.359375 4 3.601562L4 11.199219C4 11.441406 4.160156 11.601562 4.398438 11.601562L11.199219 11.601562C11.441406 11.601562 11.601562 11.441406 11.601562 11.199219L11.601562 3.601562C11.601562 3.359375 11.441406 3.199219 11.199219 3.199219zM4.800781 10.800781L4.800781 4 8 4C7.878906 6.761719 6.640625 10.800781 6 10.800781zM10.800781 10.800781L7.078125 10.800781C8.121094 9.167969 8.683594 5.488281 8.785156 4L10.800781 4zM19.601562 3.199219L12.800781 3.199219C12.558594 3.199219 12.398438 3.359375 12.398438 3.601562L12.398438 11.199219C12.398438 11.441406 12.558594 11.601562 12.800781 11.601562L19.601562 11.601562C19.839844 11.601562 20 11.441406 20 11.199219L20 3.601562C20 3.359375 19.839844 3.199219 19.601562 3.199219zM13.199219 4L15.214844 4C15.316406 5.488281 15.878906 9.167969 16.921875 10.800781L13.199219 10.800781zM19.199219 10.800781L18 10.800781C17.359375 10.800781 16.121094 6.761719 16 4L19.199219 4zM11.199219 12.398438L4.398438 12.398438C4.160156 12.398438 4 12.558594 4 12.800781L4 20.398438C4 20.640625 4.160156 20.800781 4.398438 20.800781L11.199219 20.800781C11.441406 20.800781 11.601562 20.640625 11.601562 20.398438L11.601562 12.800781C11.601562 12.558594 11.441406 12.398438 11.199219 12.398438zM4.800781 20L4.800781 13.199219 5.480469 13.199219C6.121094 13.761719 6.761719 16.359375 6.800781 20zM10.800781 20L7.597656 20C7.566406 17.515625 7.242188 14.632812 6.457031 13.199219L10.800781 13.199219zM19.601562 12.398438L12.800781 12.398438C12.558594 12.398438 12.398438 12.558594 12.398438 12.800781L12.398438 20.398438C12.398438 20.640625 12.558594 20.800781 12.800781 20.800781L19.601562 20.800781C19.839844 20.800781 20 20.640625 20 20.398438L20 12.800781C20 12.558594 19.839844 12.398438 19.601562 12.398438zM13.199219 13.199219L17.550781 13.199219C16.761719 14.636719 16.433594 17.507812 16.402344 20L13.199219 20zM19.199219 20L17.199219 20C17.238281 16.359375 17.878906 13.761719 18.519531 13.199219L19.199219 13.199219zM19.199219 20"/>
</svg>

<svg xmlns="http://www.w3.org/2000/svg" width="32" height="32" viewBox="0 0 24 24">
    <path d="M22.8 21.602h-1.198V2.336c.472-.16.796-.598.796-1.137C22.398.52 21.878 0 21.2 0H2.801c-.68 0-1.2.52-1.2 1.2 0 .534.344.968.797 1.132v19.27H1.2c-.238 0-.398.16-.398.398 0 .238.16.398.398.398h.403v.403c0 .68.52 1.199 1.199 1.199h18.398c.68 0 1.2-.52 1.2-1.2v-.402h.402c.238 0 .398-.16.398-.398 0-.238-.16-.398-.398-.398zM2.8.8h18.4c.241 0 .402.16.402.398 0 .242-.16.403-.403.403H2.801a.404.404 0 0 1-.403-.403c0-.199.204-.398.403-.398zm.4 1.597h17.6v19.204H3.2zm18.402 20.403c0 .238-.16.398-.403.398H2.801c-.242 0-.403-.16-.403-.398v-.403h19.204zm0 0"/>
    <path d="M11.2 3.2H4.397C4.16 3.2 4 3.36 4 3.601v7.597c0 .242.16.403.398.403H11.2c.242 0 .403-.16.403-.403V3.602c0-.243-.16-.403-.403-.403zm-6.4 7.6V4H8c-.121 2.762-1.36 6.8-2 6.8zm6 0H7.079C8.121 9.169 8.684 5.489 8.785 4h2.016zm0 0M19.602 3.2H12.8c-.242 0-.403.16-.403.402v7.597c0 .242.16.403.403.403h6.8c.239 0 .399-.16.399-.403V3.602c0-.243-.16-.403-.398-.403zm-6.403.8h2.016c.101 1.488.664 5.168 1.707 6.8h-3.723zm6 6.8H18c-.64 0-1.879-4.038-2-6.8h3.2zm0 0M11.2 12.398H4.397c-.238 0-.398.16-.398.403v7.597c0 .243.16.403.398.403H11.2c.242 0 .403-.16.403-.403v-7.597c0-.242-.16-.403-.403-.403zM4.8 20v-6.8h.68c.641.562 1.282 3.16 1.32 6.8zm6 0H7.599c-.032-2.484-.356-5.367-1.141-6.8h4.344zm0 0M19.602 12.398H12.8c-.242 0-.403.16-.403.403v7.597c0 .243.16.403.403.403h6.8c.239 0 .399-.16.399-.403v-7.597c0-.242-.16-.403-.398-.403zm-6.403.801h4.352c-.79 1.438-1.117 4.309-1.149 6.801H13.2zm6 6.801h-2c.04-3.64.68-6.238 1.32-6.8h.68zm0 0"/>
</svg>
